images/hw-04-imgs/group4.svg

<svg width="85" height="42" viewBox="0 0 85 42" fill="none" xmlns="http://www.w3.org/2000/svg">
<path d="M13.1462 13.1028H13.1433C10.7453 13.1028 8.80127 14.8304 8.80127 16.9615V16.964C8.80127 19.0951 10.7453 20.8227 13.1433 20.8227H13.1462C15.5442 20.8227 17.4882 19.0951 17.4882 16.964V16.9615C17.4882 14.8304 15.5442 13.1028 13.1462 13.1028Z" fill="#AFB1B8"/>
<path d="M45.195 11.8693C45.1882 8.90929 43.8623 6.07223 41.5074 3.97895C39.1525 1.88568 35.9604 0.706672 32.6297 0.699951V0.699951C29.298 0.705328 26.1045 1.88374 23.7484 3.97716C21.3922 6.07058 20.0655 8.90841 20.0587 11.8693V11.8693V28.1921C20.0587 28.1921 45.1922 25.7044 45.195 11.8718V11.8693Z" fill="#AFB1B8"/>
<path d="M0 33.5495C0.00604098 35.6091 0.929149 37.5828 2.56761 39.0394C4.20607 40.496 6.42668 41.317 8.74418 41.3231V41.3231C11.0612 41.317 13.2814 40.4963 14.9197 39.0403C16.5581 37.5843 17.4816 35.6112 17.4884 33.552V33.552V22.1943C17.4884 22.1943 0 23.9266 0 33.5495ZM8.74418 35.5844C8.2913 35.5844 7.84859 35.4651 7.47204 35.2415C7.09548 35.0179 6.80199 34.7001 6.62868 34.3282C6.45537 33.9564 6.41002 33.5472 6.49838 33.1525C6.58673 32.7577 6.80481 32.3951 7.12505 32.1105C7.44528 31.8259 7.85328 31.6321 8.29746 31.5536C8.74164 31.4751 9.20204 31.5154 9.62045 31.6694C10.0389 31.8234 10.3965 32.0843 10.6481 32.4189C10.8997 32.7535 11.034 33.147 11.034 33.5495C11.0351 33.8173 10.9767 34.0828 10.8622 34.3306C10.7476 34.5783 10.5791 34.8036 10.3664 34.9933C10.1536 35.1831 9.90081 35.3337 9.62244 35.4364C9.34407 35.5392 9.04561 35.5921 8.74418 35.5921V35.5844Z" fill="#AFB1B8"/>
<path d="M24.7302 31.9413V36.2069H23.8513V31.9413H24.7302ZM26.4294 33.7635V34.4491H24.4899V33.7635H26.4294ZM26.6345 31.9413V32.6298H24.4899V31.9413H26.6345ZM30.6481 33.9745V34.1766C30.6481 34.5009 30.6042 34.7919 30.5163 35.0497C30.4284 35.3075 30.3044 35.5272 30.1442 35.7089C29.9841 35.8885 29.7927 36.0262 29.57 36.1219C29.3493 36.2177 29.1042 36.2655 28.8347 36.2655C28.5671 36.2655 28.322 36.2177 28.0993 36.1219C27.8786 36.0262 27.6872 35.8885 27.5251 35.7089C27.363 35.5272 27.237 35.3075 27.1472 35.0497C27.0593 34.7919 27.0153 34.5009 27.0153 34.1766V33.9745C27.0153 33.6483 27.0593 33.3573 27.1472 33.1014C27.235 32.8436 27.3591 32.6239 27.5192 32.4423C27.6813 32.2606 27.8727 32.1219 28.0934 32.0262C28.3161 31.9305 28.5612 31.8827 28.8288 31.8827C29.0983 31.8827 29.3434 31.9305 29.5641 32.0262C29.7868 32.1219 29.9782 32.2606 30.1384 32.4423C30.3005 32.6239 30.4255 32.8436 30.5134 33.1014C30.6032 33.3573 30.6481 33.6483 30.6481 33.9745ZM29.7604 34.1766V33.9686C29.7604 33.7421 29.7399 33.5428 29.6989 33.371C29.6579 33.1991 29.5974 33.0546 29.5173 32.9374C29.4372 32.8202 29.3395 32.7323 29.2243 32.6737C29.1091 32.6132 28.9772 32.5829 28.8288 32.5829C28.6804 32.5829 28.5485 32.6132 28.4333 32.6737C28.32 32.7323 28.2233 32.8202 28.1432 32.9374C28.0651 33.0546 28.0056 33.1991 27.9645 33.371C27.9235 33.5428 27.903 33.7421 27.903 33.9686V34.1766C27.903 34.4012 27.9235 34.6005 27.9645 34.7743C28.0056 34.9462 28.0661 35.0917 28.1462 35.2108C28.2263 35.328 28.3239 35.4169 28.4391 35.4774C28.5544 35.538 28.6862 35.5682 28.8347 35.5682C28.9831 35.5682 29.1149 35.538 29.2302 35.4774C29.3454 35.4169 29.4421 35.328 29.5202 35.2108C29.5983 35.0917 29.6579 34.9462 29.6989 34.7743C29.7399 34.6005 29.7604 34.4012 29.7604 34.1766ZM33.5016 35.0907C33.5016 35.0145 33.4899 34.9462 33.4665 34.8856C33.445 34.8231 33.404 34.7665 33.3434 34.7157C33.2829 34.663 33.1979 34.6112 33.0886 34.5604C32.9792 34.5096 32.8376 34.4569 32.6638 34.4022C32.4704 34.3397 32.2868 34.2694 32.113 34.1913C31.9411 34.1132 31.7888 34.0223 31.6559 33.9188C31.5251 33.8134 31.4216 33.6913 31.3454 33.5526C31.2712 33.4139 31.2341 33.2528 31.2341 33.0692C31.2341 32.8915 31.2731 32.7303 31.3513 32.5858C31.4294 32.4393 31.5388 32.3143 31.6794 32.2108C31.82 32.1053 31.986 32.0243 32.1774 31.9677C32.3708 31.911 32.5827 31.8827 32.8132 31.8827C33.1276 31.8827 33.402 31.9393 33.6364 32.0526C33.8708 32.1659 34.0524 32.3212 34.1813 32.5184C34.3122 32.7157 34.3776 32.9413 34.3776 33.1952H33.5046C33.5046 33.0702 33.4782 32.9608 33.4255 32.8671C33.3747 32.7714 33.2966 32.6962 33.1911 32.6415C33.0876 32.5868 32.9567 32.5594 32.7985 32.5594C32.6462 32.5594 32.5192 32.5829 32.4177 32.6298C32.3161 32.6747 32.2399 32.7362 32.1891 32.8143C32.1384 32.8905 32.113 32.9764 32.113 33.0721C32.113 33.1444 32.1306 33.2098 32.1657 33.2684C32.2028 33.327 32.2575 33.3817 32.3298 33.4325C32.402 33.4833 32.4909 33.5311 32.5964 33.576C32.7018 33.621 32.8239 33.6649 32.9626 33.7079C33.195 33.7782 33.3991 33.8573 33.5749 33.9452C33.7526 34.0331 33.9011 34.1317 34.0202 34.2411C34.1393 34.3505 34.2292 34.4745 34.2897 34.6132C34.3503 34.7518 34.3806 34.9091 34.3806 35.0848C34.3806 35.2704 34.3444 35.4364 34.2722 35.5829C34.1999 35.7294 34.0954 35.8534 33.9587 35.955C33.822 36.0565 33.6589 36.1337 33.4694 36.1864C33.28 36.2391 33.0681 36.2655 32.8337 36.2655C32.6227 36.2655 32.4147 36.2382 32.2097 36.1835C32.0046 36.1268 31.8181 36.0419 31.6501 35.9286C31.4841 35.8153 31.3513 35.6708 31.2516 35.495C31.152 35.3192 31.1022 35.1112 31.1022 34.871H31.9841C31.9841 35.0038 32.0046 35.1161 32.0456 35.2079C32.0866 35.2997 32.1442 35.3739 32.2184 35.4305C32.2946 35.4872 32.3845 35.5282 32.488 35.5536C32.5934 35.579 32.7087 35.5917 32.8337 35.5917C32.986 35.5917 33.111 35.5702 33.2087 35.5272C33.3083 35.4843 33.3815 35.4247 33.4284 35.3485C33.4772 35.2723 33.5016 35.1864 33.5016 35.0907ZM36.8854 31.9413V36.2069H36.0095V31.9413H36.8854ZM38.1979 31.9413V32.6298H34.7175V31.9413H38.1979ZM41.5612 35.5214V36.2069H39.2907V35.5214H41.5612ZM39.5778 31.9413V36.2069H38.6989V31.9413H39.5778ZM41.2653 33.6786V34.3466H39.2907V33.6786H41.2653ZM41.5583 31.9413V32.6298H39.2907V31.9413H41.5583ZM42.0739 31.9413H43.6647C43.9909 31.9413 44.2712 31.9901 44.5056 32.0878C44.7419 32.1854 44.9235 32.33 45.0505 32.5214C45.1774 32.7128 45.2409 32.9481 45.2409 33.2274C45.2409 33.4559 45.2018 33.6522 45.1237 33.8163C45.0475 33.9784 44.9391 34.1141 44.7985 34.2235C44.6599 34.3309 44.4968 34.4169 44.3093 34.4813L44.0309 34.6278H42.6481L42.6423 33.9423H43.6706C43.8249 33.9423 43.9528 33.9149 44.0544 33.8602C44.1559 33.8055 44.2321 33.7294 44.2829 33.6317C44.3356 33.5341 44.362 33.4208 44.362 33.2919C44.362 33.1552 44.3366 33.037 44.2858 32.9374C44.235 32.8378 44.1579 32.7616 44.0544 32.7089C43.9509 32.6561 43.821 32.6298 43.6647 32.6298H42.9528V36.2069H42.0739V31.9413ZM44.4587 36.2069L43.486 34.3055L44.4147 34.2997L45.3991 36.1659V36.2069H44.4587ZM49.0729 34.6864H47.986V34.0009H49.0729C49.2409 34.0009 49.3776 33.9735 49.4831 33.9188C49.5886 33.8622 49.6657 33.7841 49.7145 33.6844C49.7634 33.5848 49.7878 33.4725 49.7878 33.3475C49.7878 33.2206 49.7634 33.1024 49.7145 32.993C49.6657 32.8837 49.5886 32.7958 49.4831 32.7294C49.3776 32.663 49.2409 32.6298 49.0729 32.6298H48.2907V36.2069H47.4118V31.9413H49.0729C49.4069 31.9413 49.6931 32.0018 49.9313 32.1229C50.1716 32.2421 50.3552 32.4071 50.4821 32.618C50.6091 32.829 50.6725 33.0702 50.6725 33.3417C50.6725 33.6171 50.6091 33.8553 50.4821 34.0565C50.3552 34.2577 50.1716 34.413 49.9313 34.5223C49.6931 34.6317 49.4069 34.6864 49.0729 34.6864ZM54.1413 35.5214V36.2069H51.8708V35.5214H54.1413ZM52.1579 31.9413V36.2069H51.279V31.9413H52.1579ZM53.8454 33.6786V34.3466H51.8708V33.6786H53.8454ZM54.1384 31.9413V32.6298H51.8708V31.9413H54.1384ZM56.6198 31.9413V36.2069H55.7438V31.9413H56.6198ZM57.9323 31.9413V32.6298H54.4518V31.9413H57.9323ZM61.2956 35.5214V36.2069H59.0251V35.5214H61.2956ZM59.3122 31.9413V36.2069H58.4333V31.9413H59.3122ZM60.9997 33.6786V34.3466H59.0251V33.6786H60.9997ZM61.2927 31.9413V32.6298H59.0251V31.9413H61.2927ZM61.8083 31.9413H63.3991C63.7253 31.9413 64.0056 31.9901 64.2399 32.0878C64.4763 32.1854 64.6579 32.33 64.7849 32.5214C64.9118 32.7128 64.9753 32.9481 64.9753 33.2274C64.9753 33.4559 64.9362 33.6522 64.8581 33.8163C64.7819 33.9784 64.6735 34.1141 64.5329 34.2235C64.3942 34.3309 64.2311 34.4169 64.0436 34.4813L63.7653 34.6278H62.3825L62.3766 33.9423H63.405C63.5593 33.9423 63.6872 33.9149 63.7888 33.8602C63.8903 33.8055 63.9665 33.7294 64.0173 33.6317C64.07 33.5341 64.0964 33.4208 64.0964 33.2919C64.0964 33.1552 64.071 33.037 64.0202 32.9374C63.9694 32.8378 63.8923 32.7616 63.7888 32.7089C63.6852 32.6561 63.5554 32.6298 63.3991 32.6298H62.6872V36.2069H61.8083V31.9413ZM64.1931 36.2069L63.2204 34.3055L64.1491 34.2997L65.1335 36.1659V36.2069H64.1931ZM67.8727 35.0907C67.8727 35.0145 67.861 34.9462 67.8376 34.8856C67.8161 34.8231 67.7751 34.7665 67.7145 34.7157C67.654 34.663 67.569 34.6112 67.4597 34.5604C67.3503 34.5096 67.2087 34.4569 67.0349 34.4022C66.8415 34.3397 66.6579 34.2694 66.4841 34.1913C66.3122 34.1132 66.1599 34.0223 66.027 33.9188C65.8962 33.8134 65.7927 33.6913 65.7165 33.5526C65.6423 33.4139 65.6052 33.2528 65.6052 33.0692C65.6052 32.8915 65.6442 32.7303 65.7224 32.5858C65.8005 32.4393 65.9099 32.3143 66.0505 32.2108C66.1911 32.1053 66.3571 32.0243 66.5485 31.9677C66.7419 31.911 66.9538 31.8827 67.1843 31.8827C67.4987 31.8827 67.7731 31.9393 68.0075 32.0526C68.2419 32.1659 68.4235 32.3212 68.5524 32.5184C68.6833 32.7157 68.7487 32.9413 68.7487 33.1952H67.8757C67.8757 33.0702 67.8493 32.9608 67.7966 32.8671C67.7458 32.7714 67.6677 32.6962 67.5622 32.6415C67.4587 32.5868 67.3278 32.5594 67.1696 32.5594C67.0173 32.5594 66.8903 32.5829 66.7888 32.6298C66.6872 32.6747 66.611 32.7362 66.5602 32.8143C66.5095 32.8905 66.4841 32.9764 66.4841 33.0721C66.4841 33.1444 66.5016 33.2098 66.5368 33.2684C66.5739 33.327 66.6286 33.3817 66.7009 33.4325C66.7731 33.4833 66.862 33.5311 66.9675 33.576C67.0729 33.621 67.195 33.6649 67.3337 33.7079C67.5661 33.7782 67.7702 33.8573 67.946 33.9452C68.1237 34.0331 68.2722 34.1317 68.3913 34.2411C68.5104 34.3505 68.6003 34.4745 68.6608 34.6132C68.7214 34.7518 68.7516 34.9091 68.7516 35.0848C68.7516 35.2704 68.7155 35.4364 68.6432 35.5829C68.571 35.7294 68.4665 35.8534 68.3298 35.955C68.1931 36.0565 68.03 36.1337 67.8405 36.1864C67.6511 36.2391 67.4391 36.2655 67.2048 36.2655C66.9938 36.2655 66.7858 36.2382 66.5807 36.1835C66.3757 36.1268 66.1891 36.0419 66.0212 35.9286C65.8552 35.8153 65.7224 35.6708 65.6227 35.495C65.5231 35.3192 65.4733 35.1112 65.4733 34.871H66.3552C66.3552 35.0038 66.3757 35.1161 66.4167 35.2079C66.4577 35.2997 66.5153 35.3739 66.5895 35.4305C66.6657 35.4872 66.7556 35.5282 66.8591 35.5536C66.9645 35.579 67.0798 35.5917 67.2048 35.5917C67.3571 35.5917 67.4821 35.5702 67.5798 35.5272C67.6794 35.4843 67.7526 35.4247 67.7995 35.3485C67.8483 35.2723 67.8727 35.1864 67.8727 35.0907Z" fill="#AFB1B8"/>
</svg>

<svg width="85" height="42" fill="none" xmlns="http://www.w3.org/2000/svg"><path d="M13.146 13.103h-.003c-2.398 0-4.342 1.727-4.342 3.859v.002c0 2.131 1.944 3.859 4.342 3.859h.003c2.398 0 4.342-1.728 4.342-3.859v-.002c0-2.132-1.944-3.86-4.342-3.86ZM45.195 11.87c-.007-2.96-1.333-5.798-3.688-7.891C39.153 1.886 35.96.707 32.63.7c-3.332.005-6.526 1.184-8.882 3.277-2.356 2.094-3.683 4.931-3.69 7.892v16.323s25.134-2.488 25.137-16.32v-.003ZM0 33.55c.006 2.06.93 4.033 2.568 5.49 1.638 1.456 3.859 2.277 6.176 2.283 2.317-.006 4.537-.827 6.176-2.283 1.638-1.456 2.562-3.429 2.568-5.488V22.194S0 23.927 0 33.55Zm8.744 2.034c-.453 0-.895-.119-1.272-.343a2.107 2.107 0 0 1-.843-.913 1.825 1.825 0 0 1-.13-1.175c.088-.395.306-.758.626-1.042a2.39 2.39 0 0 1 1.172-.557 2.558 2.558 0 0 1 1.323.115c.419.154.777.415 1.028.75.252.335.386.728.386 1.13.001.268-.057.534-.172.782a2.036 2.036 0 0 1-.496.662c-.212.19-.465.34-.744.443a2.54 2.54 0 0 1-.878.156v-.008ZM24.73 31.941v4.266h-.879V31.94h.88Zm1.7 1.823v.685h-1.94v-.685h1.94Zm.204-1.823v.689H24.49v-.689h2.145Zm4.014 2.034v.202c0 .324-.044.615-.132.873a1.92 1.92 0 0 1-.372.659c-.16.18-.351.317-.574.413-.22.096-.466.144-.735.144-.268 0-.513-.048-.736-.144a1.649 1.649 0 0 1-.574-.413 1.93 1.93 0 0 1-.378-.66 2.696 2.696 0 0 1-.132-.872v-.203c0-.326.044-.617.132-.873.088-.257.212-.477.372-.659a1.63 1.63 0 0 1 .574-.416c.223-.096.468-.143.736-.143.27 0 .514.047.735.143.223.096.414.235.574.416.162.182.287.402.375.66.09.255.135.546.135.873Zm-.888.202v-.208c0-.227-.02-.426-.061-.598a1.295 1.295 0 0 0-.182-.434.785.785 0 0 0-.293-.263.838.838 0 0 0-.395-.091c-.149 0-.28.03-.396.09a.792.792 0 0 0-.29.264 1.338 1.338 0 0 0-.178.434 2.592 2.592 0 0 0-.062.598v.208c0 .224.02.423.062.597.04.172.101.318.181.437a.81.81 0 0 0 .293.266c.115.061.247.091.396.091.148 0 .28-.03.395-.09a.786.786 0 0 0 .29-.267 1.37 1.37 0 0 0 .179-.437c.04-.174.061-.373.061-.597Zm3.742.914a.566.566 0 0 0-.035-.205.387.387 0 0 0-.124-.17 1.092 1.092 0 0 0-.254-.156 3.605 3.605 0 0 0-.425-.158 5.377 5.377 0 0 1-.551-.21 2.265 2.265 0 0 1-.457-.273 1.228 1.228 0 0 1-.31-.366 1.01 1.01 0 0 1-.112-.484 1 1 0 0 1 .117-.483c.078-.147.188-.272.328-.375.141-.106.307-.187.498-.243.194-.057.406-.085.636-.085.315 0 .589.056.823.17.235.113.416.268.545.465.131.198.197.423.197.677h-.873a.658.658 0 0 0-.08-.328.535.535 0 0 0-.234-.225.835.835 0 0 0-.393-.083.908.908 0 0 0-.38.07.508.508 0 0 0-.229.185.455.455 0 0 0-.076.258c0 .072.018.138.053.196a.594.594 0 0 0 .164.164c.072.051.16.1.266.144.106.045.228.089.367.132.232.07.436.15.612.237.178.088.326.187.445.296.12.11.21.233.27.372.06.139.09.296.09.472a1.024 1.024 0 0 1-.422.87c-.136.102-.3.179-.489.231a2.37 2.37 0 0 1-.635.08 2.41 2.41 0 0 1-.624-.082 1.897 1.897 0 0 1-.56-.255 1.286 1.286 0 0 1-.398-.434c-.1-.176-.15-.384-.15-.624h.882c0 .133.02.245.062.337a.562.562 0 0 0 .172.223.742.742 0 0 0 .27.123c.105.025.22.038.346.038a.937.937 0 0 0 .375-.065.462.462 0 0 0 .293-.436Zm3.383-3.15v4.266h-.875V31.94h.875Zm1.313 0v.689h-3.48v-.689h3.48Zm3.363 3.58v.686h-2.27v-.686h2.27Zm-1.983-3.58v4.266h-.88V31.94h.88Zm1.687 1.738v.668h-1.974v-.668h1.974Zm.293-1.738v.689h-2.267v-.689h2.267Zm.516 0h1.59c.327 0 .607.05.842.147.236.097.417.242.544.433.127.192.19.427.19.706 0 .229-.038.425-.116.59a1.103 1.103 0 0 1-.326.407 1.685 1.685 0 0 1-.489.257l-.278.147h-1.383l-.006-.686h1.029a.803.803 0 0 0 .383-.082.538.538 0 0 0 .229-.228.704.704 0 0 0 .079-.34.771.771 0 0 0-.076-.355.514.514 0 0 0-.232-.228.853.853 0 0 0-.39-.08h-.711v3.578h-.88V31.94Zm2.385 4.266-.973-1.901.929-.006.984 1.866v.04h-.94Zm4.614-1.52h-1.087V34h1.087a.89.89 0 0 0 .41-.082.525.525 0 0 0 .232-.235.859.859 0 0 0 0-.691.592.592 0 0 0-.232-.264.76.76 0 0 0-.41-.1h-.782v3.578h-.88V31.94h1.662c.334 0 .62.06.858.182.24.12.424.284.551.495.127.211.19.452.19.724 0 .275-.063.513-.19.715-.127.2-.31.356-.55.465-.239.11-.525.164-.86.164Zm5.068.834v.686h-2.27v-.686h2.27Zm-1.983-3.58v4.266h-.879V31.94h.879Zm1.687 1.738v.668h-1.974v-.668h1.974Zm.293-1.738v.689h-2.267v-.689h2.267Zm2.482 0v4.266h-.876V31.94h.876Zm1.312 0v.689h-3.48v-.689h3.48Zm3.364 3.58v.686h-2.27v-.686h2.27Zm-1.984-3.58v4.266h-.879V31.94h.88ZM61 33.68v.668h-1.975v-.668H61Zm.293-1.738v.689h-2.268v-.689h2.268Zm.515 0H63.4c.326 0 .607.05.84.147.237.097.419.242.546.433.127.192.19.427.19.706 0 .229-.039.425-.117.59a1.103 1.103 0 0 1-.325.407 1.687 1.687 0 0 1-.49.257l-.278.147h-1.383l-.005-.686h1.028a.803.803 0 0 0 .384-.082.538.538 0 0 0 .228-.228.704.704 0 0 0 .08-.34.771.771 0 0 0-.077-.355.514.514 0 0 0-.231-.228.854.854 0 0 0-.39-.08h-.712v3.578h-.879V31.94Zm2.385 4.266-.973-1.901.93-.006.983 1.866v.04h-.94Zm3.68-1.116a.566.566 0 0 0-.035-.205.387.387 0 0 0-.123-.17 1.092 1.092 0 0 0-.255-.156 3.605 3.605 0 0 0-.425-.158 5.377 5.377 0 0 1-.55-.21 2.265 2.265 0 0 1-.458-.273 1.228 1.228 0 0 1-.31-.366 1.01 1.01 0 0 1-.112-.484 1 1 0 0 1 .117-.483c.079-.147.188-.272.329-.375.14-.106.306-.187.498-.243.193-.057.405-.085.635-.085.315 0 .59.056.823.17.235.113.416.268.545.465.131.198.197.423.197.677h-.873a.658.658 0 0 0-.08-.328.535.535 0 0 0-.234-.225.835.835 0 0 0-.392-.083.908.908 0 0 0-.381.07.508.508 0 0 0-.229.185.455.455 0 0 0-.076.258c0 .072.018.138.053.196a.594.594 0 0 0 .164.164c.072.051.161.1.267.144.105.045.227.089.366.132.232.07.436.15.612.237.178.088.326.187.445.296.12.11.21.233.27.372.06.139.09.296.09.472 0 .185-.035.351-.108.498-.072.146-.177.27-.313.372-.137.102-.3.179-.49.231-.189.053-.4.08-.635.08-.211 0-.42-.028-.624-.082a1.896 1.896 0 0 1-.56-.255 1.286 1.286 0 0 1-.398-.434c-.1-.176-.15-.384-.15-.624h.882c0 .133.02.245.062.337a.562.562 0 0 0 .172.223.742.742 0 0 0 .27.123c.106.025.22.038.346.038a.937.937 0 0 0 .375-.065.462.462 0 0 0 .293-.436Z" fill="#AFB1B8"/></svg>
